static/arrow-zigzag.svg

<svg fill="none" height="37" viewBox="0 0 226 37" width="226" xmlns="http://www.w3.org/2000/svg" xmlns:xlink="http://www.w3.org/1999/xlink"><clipPath id="a"><path d="m.5 0h225v36.3971h-225z"/></clipPath><g clip-path="url(#a)" fill="#ef8435"><path d="m2.07512 6.4818c27.45578-3.16748 55.09748-4.63534 82.73918-4.34563 7.7522.07726 15.4947.31868 23.2467.66633l.49-2.008644c-23.5801 6.634324-47.15 13.268644-70.7296 19.902944-6.6559 1.8735-13.3217 3.7373-19.9776 5.6107-.5481.1545-1.6738.5794-1.6346 1.3037.0391.7243 1.1256.6953 1.6346.6663 22.6889-1.3809 45.4072-2.3176 68.1353-2.8005 22.5619-.4828 45.1429-.5311 67.7049-.1352 12.832.2221 25.654.6277 38.487 1.072.792.0289 2.055-.2801 2.486-1.014.43-.734-.382-1.0623-1.018-1.0913-22.787-1.0043-45.603-1.3809-68.409-1.3906-22.817 0-45.6328.4443-68.4294 1.352-12.8127.5118-25.6253 1.1588-38.4282 1.9411v1.97c23.5698-6.6344 47.1494-13.259 70.7291-19.88369l19.9775-5.61069c.529-.14486 1.537-.52148 1.654-1.17815.118-.656672-.685-.811183-1.165-.830497-27.788-1.265061-55.6549-.7242717-83.3553 1.496827-7.8893.6277-15.7785 1.40992-23.63839 2.31767-.62644.0676-1.967413.44422-2.075083 1.21678-.107669.77255 1.047333.83049 1.575893.77255z"/><path d="m172.692 17.9238c16.738 1.4872 33.368 4.1525 49.734 7.9187l-.735-.7822c-.46 1.2168-1.575 1.661-2.77 1.9604-1.771.4442-3.631.6566-5.432.956-4.18.705-8.349 1.4099-12.529 2.1149-8.359 1.4099-16.718 2.8101-25.067 4.2587-.636.1062-1.997.4345-2.095 1.2361-.098.8015 1.057.8691 1.596.7822 9.318-1.5258 18.626-3.1096 27.945-4.6836 4.659-.7822 9.328-1.5451 13.977-2.3563 3.113-.5505 6.93-1.4775 8.163-4.7319.167-.4539-.401-.705-.734-.7823-16.659-3.8145-33.563-6.4798-50.595-7.9863-.773-.0676-2.055.2994-2.476 1.0044-.45.7725.392 1.0333 1.018 1.0815z"/></g></svg>

<svg width="226" height="37" viewBox="0 0 226 37" fill="none" xmlns="http://www.w3.org/2000/svg">
<g clip-path="url(#clip0_2113_59594)">
<path d="M2.07512 6.4818C29.5309 3.31432 57.1726 1.84646 84.8143 2.13617C92.5665 2.21343 100.309 2.45485 108.061 2.8025L108.551 0.793856C84.9709 7.42818 61.401 14.0625 37.8214 20.6968C31.1655 22.5703 24.4997 24.4341 17.8438 26.3075C17.2957 26.462 16.17 26.8869 16.2092 27.6112C16.2483 28.3355 17.3348 28.3065 17.8438 28.2775C40.5327 26.8966 63.251 25.9599 85.9791 25.477C108.541 24.9942 131.122 24.9459 153.684 25.3418C166.516 25.5639 179.338 25.9695 192.171 26.4138C192.963 26.4427 194.226 26.1337 194.657 25.3998C195.087 24.6658 194.275 24.3375 193.639 24.3085C170.852 23.3042 148.036 22.9276 125.23 22.9179C102.413 22.9179 79.5972 23.3622 56.8006 24.2699C43.9879 24.7817 31.1753 25.4287 18.3724 26.211V28.181C41.9422 21.5466 65.5218 14.922 89.1015 8.29731L109.079 2.68662C109.608 2.54176 110.616 2.16514 110.733 1.50847C110.851 0.851798 110.048 0.697287 109.568 0.677973C81.78 -0.587088 53.9131 -0.0462987 26.2127 2.1748C18.3234 2.8025 10.4342 3.58472 2.57431 4.49247C1.94787 4.56007 0.606897 4.93669 0.499227 5.70925C0.391558 6.4818 1.54656 6.53974 2.07512 6.4818Z" fill="#EF8435"/>
<path d="M172.692 17.9238C189.43 19.411 206.06 22.0763 222.426 25.8425L221.691 25.0603C221.231 26.2771 220.116 26.7213 218.921 27.0207C217.15 27.4649 215.29 27.6773 213.489 27.9767C209.309 28.6817 205.14 29.3866 200.96 30.0916C192.601 31.5015 184.242 32.9017 175.893 34.3503C175.257 34.4565 173.896 34.7848 173.798 35.5864C173.7 36.3879 174.855 36.4555 175.394 36.3686C184.712 34.8428 194.02 33.259 203.339 31.685C207.998 30.9028 212.667 30.1399 217.316 29.3287C220.429 28.7782 224.246 27.8512 225.479 24.5968C225.646 24.1429 225.078 23.8918 224.745 23.8145C208.086 20 191.182 17.3347 174.15 15.8282C173.377 15.7606 172.095 16.1276 171.674 16.8326C171.224 17.6051 172.066 17.8659 172.692 17.9141V17.9238Z" fill="#EF8435"/>
</g>
<defs>
<clipPath id="clip0_2113_59594">
<rect width="225" height="36.3971" fill="white" transform="translate(0.5)"/>
</clipPath>
</defs>
</svg>
